X:1
T:A Shelter in the Time of Storm
T:A Shelter in the Time of Storm
T:Ira David Sankey, 1885
T:Vernon J. Charlesworth, circa 1880
T:Public Domain Courtesy of the Cyber Hymnal™
C:Ira David Sankey, 1885
Z:Public Domain
Z:Courtesy of the Cyber Hymnal™
%%score ( 1 2 ) ( 3 4 )
L:1/8
M:4/4
K:F
V:1 treble 
V:2 treble 
V:3 bass 
V:4 bass 
V:1
 C2 | [CF]2 [CF]2 [CF]2 [EG]2 | [FA]2 [GB]2 [Ac]3 [FA] | [FA]>[FA] [FA]>[FA] [GB]2 [FA]2 | %4
w: 1.~The|Lord’s our rock, in|Him we hide, A|shel- ter in the time of|
w: 2.~A|shade by day, de-|fense by night, A|shel- ter in the time of|
w: 3.~The|rag- ing storms may|round us beat, A|shel- ter in the time of|
w: 4.~O|rock di- vine, O|re- fuge dear, A|shel- ter in the time of|
 [EG]6 C2 | [CF]2 [CF]2 [CF]2 [EG]2 | [FA]2 [GB]2 [Ac]3 F | [FA]>[FA] [FA]F [EG]2 [EG]2 | F6 || %9
w: storm; Se-|cure what- ev- er|ill be- tide, A|shel- ter in the time of|storm.|
w: storm; No|fears a- larm, no|foes a- fright, A|shel- ter in the time of|storm.|
w: storm We’ll|ne- ver leave our|safe re- treat, A|shel- ter in the time of|storm.|
w: storm; Be|Thou our help- er|ev- er near, A|shel- ter in the time of|storm.|
"^Refrain" !fermata![Fc]2 | [Fd]>[Fd] [Fd]>[Fd] [Fd]2 [Fe]>[Fd] | [Fc]2 [Ec]2 [Fc]3 [FA] | %12
w: |||
w: |||
w: |||
w: |||
 [EB]2 [EB]2 [EB]3 [Gc] | [FA]2 [FA]2 [FA]2 [Fc]2 | [Fd]>[Fd] [Fd]>[Fd] [Fd]2 [Fe]>[Fd] | %15
w: |||
w: |||
w: |||
w: |||
 [Fc]2 [Ec]2 [Fc]3 F | [FA]>[FA] [FA]F [EG]2 [EG]2 | F6 |] %18
w: |||
w: |||
w: |||
w: |||
V:2
 C2 | x8 | x8 | x8 | x6 C2 | x8 | x8 | x8 | F6 || x2 | x8 | x8 | x8 | x8 | x8 | x8 | x8 | F6 |] %18
V:3
 [F,A,]2 | [F,A,]2 [F,A,]2 [F,A,]2 [C,C]2 | [F,C]2 [F,C]2 [F,F]3 [F,C] | %3
w: ~|~ ~ ~ ~|~ ~ ~ ~|
 [F,C]>[F,C] [F,C]>[F,C] [E,C]2 [F,C]2 | [C,C]6 [E,B,]2 | [F,A,]2 [F,A,]2 [F,A,]2 [C,C]2 | %6
w: ~ ~ ~ ~ ~ ~|~ ~|~ ~ ~ ~|
 [F,C]2 [F,C]2 [F,F]3 [F,A,] | [C,C]>[C,C] [C,C][C,A,] [C,B,]2 [C,B,]2 | [F,A,]6 || %9
w: ~ ~ ~ ~|~ ~ ~ ~ ~ ~|~|
 !fermata![F,A,]2 | [B,,B,]>[B,,B,] [B,,B,]>[B,,B,] [B,,B,]2 [B,,C]>[B,,B,] | %11
w: Oh,|Je- sus is a rock in a|
 [F,A,]2 [C,G,]2 [F,A,]3 F, | [C,G,]2 [C,G,]2 [C,G,]3 [E,C] | [F,C]2 [F,C]2 [F,C]2 [F,A,]2 | %14
w: wear- y land, A|wear- y land, a|wear- y land; Oh,|
 [B,,B,]>[B,,B,] [B,,B,]>[B,,B,] [B,,B,]2 [B,,C]>[B,,B,] | [F,A,]2 [C,G,]2 [F,A,]3 [D,=B,] | %16
w: Je- sus is a rock in a|wear- y land, A|
 [C,C]>[C,C] [C,C][C,A,] [C,B,]2 [C,B,]2 | [F,,A,]6 |] %18
w: shel- ter in the time of|storm.|
V:4
 x2 | x8 | x8 | x8 | x8 | x8 | x8 | x8 | x6 || x2 | x8 | x7 F, | x8 | x8 | x8 | x8 | x8 | x6 |] %18

